X:67
T:Good Bait
C: Tad Dameron
N:TablEdited by Arnie Sherman and M. Stangeland
L:1/8
Q:1/4=120
M:4/4
K:Bb
z7/1F |: B2 BA "Gm"B4 | "Cm"zA Bc "F7(b9)"_de _g_a | "Bb"f2 fd "Gm"f4 | "Cm"zd cB "F7"Ac fe | 
"Bb"d2 d_d "Bb7"=dg fd | "Eb"B2 BA Bd fe | "Dm"dA "G7(b9)"_A_d "Cm"cG "F7(b9)"_G=B | 
|1 B7/1F :||: B7/1B | "Eb"e2 ed "Cm"e4 | "Fm"zd ef "Bb7(b9)"_g_a =b_d' | "Eb"b2 bg "Cm"b4 | 
"Fm"zg fe "Bb7"df b_a | "Eb"g2 g_g "Eb7"=gc' bg | "Ab"e2 ed eg b_a | "Gm"gd "C7(b9)"_d_g "Fm"fc "Bb7(b9)"=B=e | 
"Eb"e4 f3F :| B8 |] 


